src/components/profile_avatars/profile-female-1.svg

<svg xmlns="http://www.w3.org/2000/svg" width="528" height="528" fill="none" viewBox="0 0 528 528"><g clip-path="url(#a)"><ellipse cx="265.5" cy="281.5" fill="#9b67bc" rx="257.5" ry="254.5"/><path fill="#4d301e" d="M467.73 469.014c35.612 69.198 48.485 87.419-23.48 98.699-138.728 11.983-266.71 95.979-314.445-31.113-25.518-67.941-49.4515 43.352-22.038-60.974 26.446-100.646 12.488-195.063 12.488-327.641 0-25.711 17.631-116.0747 79.339-136.6397 20.385-6.79333 43.343-13.22124 65.381-6.61065 22.773 0 31.589-5.142496 66.116 9.54985 57.932 24.652 73.434 110.9275 77.87 159.4125 4.675 51.105 14.254 208.818 58.769 295.317"/><path fill="#fff" d="M527.162 950.926c30.721 354.924 65.958 635.914-116.643 651.724-182.6 15.81-388.2654-296.8-418.98647-651.726C-44.3914 524.334 13.2669 409.043 221.899 401.695c289.174-29.649 338.196 62.589 377.87 182.621 88.09 266.519-88.432 183.778-72.607 366.61"/><path fill="#d69a77" d="M212.882 387.905c8.463-75.076-16.121-119.922-5.377-208.64 48.348-46.134 131.721 12.447 131.721 72.066s-5.143 105.725 13.903 140.567c-5.372 31.939-34.618 54.503-66.85 80.054-40.29 31.939-78.145-41.927-73.397-84.047"/><path fill="#b57752" d="M264.975 391.147c-16.421.887-43.873-16.32-50.101-26.145l-.587-12.79c7.005-2.106 29.8 2.065 59.068 7.119 29.269 5.053 39.829-45.741 62.144-60.012l3.673 5.877c-.779 9.124-1.469 19.835-5.142 27.181-12.951 25.9-41.874 57.3-69.055 58.77"/><path fill="#d69a77" d="M353.247 197.15c5.373-11.742 19.204-16.963 30.996-11.699 10.462 4.669 16.043 16.193 13.218 27.297l-7.331 28.817c-4.445 17.475-24.795 25.353-39.849 15.426-10.795-7.119-14.788-21.045-9.408-32.803z"/><path fill="#d69a77" d="M378.779 199.748c-.904-21.619-24.928-96.381-36.669-120.0791-52.536-106.0398-96.252-33.6334-139.577-45.548-34.66-9.5317-53.628 74.9281-58.035 112.3931-4.408 37.466 5.731 28.651 2.938 86.685-2.101 43.66 41.139 124.386 103.581 138.109 68.32 15.015 128.892-144.536 127.762-171.56"/><path fill="#4d301e" d="M375.743 194.369c1.329-8.454.408-19.853-.739-23.166l19.362 6.073c3.058 4.805 6.528 15.777 3.98 14.314-3.185-1.829-8.827-5.577-15.491.424-3.088 2.781-8.441 13.62-10.154 19.752.46-2.277 1.713-8.944 3.042-17.397"/><path fill="#fdfcf5" d="M251.131 301.474c13.628-.512 30.829-5.446 36.417-8.051-5.498 4.997-14.83 21.098-31.865 21.738-23.305.875-30.417-14.609-36.275-19.18 5.768 2.179 18.095 6.005 31.723 5.493"/><path fill="#4d301e" d="M162.13 124.478c-9.275 22.669-16.897 52.157-15.427 87.419-4.408-6.609-13.224-89.056-2.939-127.826 5.085-19.1691 25.712-45.5458 58.035-58.0343s52.158-6.6076 105.051-3.6692c42.314 2.3508 74.441 83.7465 85.215 124.1505-6.856 11.754-12.194 28.707-13.957 38.11-1.764 9.403-4.408 25.555-5.877 28.004-7.347 12.489-19.101-13.958-19.101-33.793 0-19.834-7.346-38.2-20.569-55.998-13.223-17.799-46.281-41.3068-86.685-47.0159-2.204 0-2.204-8.6475 0-16.7283s1.469-4.4077 4.408-12.4885c-2.857 3.6731-1.763 2.9385-4.408 7.3462-2.644 4.4077-6.611 15.427-8.815 21.3039-1.47-.7348-22.839 5.9811-33.793 10.2843-20.569 8.0808-34.527 22.7733-41.138 38.9353"/><circle cx="373.699" cy="258.178" r="7.34619" fill="#edbb33"/><path stroke="#edbb33" stroke-width="4.40771" d="M374.434 260.382c.894 0 1.99.46 3.234 1.823 1.246 1.363 2.469 3.459 3.541 6.235 2.14 5.537 3.51 13.337 3.51 22.061 0 8.725-1.37 16.525-3.51 22.062-1.072 2.776-2.295 4.872-3.541 6.235-1.244 1.363-2.34 1.823-3.234 1.823-.893 0-1.989-.461-3.233-1.823-1.246-1.363-2.469-3.459-3.541-6.235-2.14-5.537-3.51-13.337-3.51-22.062s1.37-16.524 3.51-22.061c1.072-2.776 2.295-4.872 3.541-6.235 1.244-1.363 2.34-1.823 3.233-1.823Z"/><path fill="#d69a77" d="M164.333 406.572c24.243-3.674 35.507-12.244 48.485-17.631 4.653 3.673 19.394 11.019 41.139 11.019 27.181 0 72.727-11.019 85.216-11.019 15.427 0 6.611 3.673 58.769 11.754-2.938 4.652-10.725 17.924-18.365 27.915-9.55 12.489-81.423 82.277-107.255 82.277-38.2 0-117.09-102.937-107.989-104.315"/><path stroke="#d2d2d2" stroke-width="7.34619" d="M125.398 416.856c6.612 21.304 48.403 71.375 69.054 88.154 35.262 28.651 74.197 51.424 83.747 51.424s69.054-44.077 99.908-75.666c24.683-25.271 48.485-57.3 52.158-74.196"/><path stroke="#d2d2d2" stroke-width="7.34619" d="M82.79 435.956c13.2232 27.916 58.379 89.229 85.95 111.662 47.077 38.304 97.444 59.505 110.193 59.505 12.75 0 81.891-42.968 123.083-85.2 32.953-33.786 66.449-85.232 73.061-100.659"/></g><defs><clipPath id="a"><path fill="#fff" d="M0 264C0 118.197 118.197 0 264 0s264 118.197 264 264-118.197 264-264 264S0 409.803 0 264"/></clipPath></defs></svg>

<svg width="528" height="528" viewBox="0 0 528 528" fill="none" xmlns="http://www.w3.org/2000/svg">
<g clip-path="url(#clip0_15659_307896)">
<ellipse cx="265.5" cy="281.5" rx="257.5" ry="254.5" fill="#9B67BC"/>
<path d="M467.73 469.014C503.342 538.212 516.215 556.433 444.25 567.713C305.522 579.696 177.54 663.692 129.805 536.6C104.287 468.659 80.3535 579.952 107.767 475.626C134.213 374.98 120.255 280.563 120.255 147.985C120.255 122.274 137.886 31.9103 199.594 11.3453C219.979 4.55197 242.937 -1.87594 264.975 4.73465C287.748 4.73465 296.564 -0.407846 331.091 14.2845C389.023 38.9365 404.525 125.212 408.961 173.697C413.636 224.802 423.215 382.515 467.73 469.014Z" fill="#4D301E"/>
<path d="M527.162 950.926C557.883 1305.85 593.12 1586.84 410.519 1602.65C227.919 1618.46 22.2536 1305.85 -8.46747 950.924C-44.3914 524.334 13.2669 409.043 221.899 401.695C511.073 372.046 560.095 464.284 599.769 584.316C687.859 850.835 511.337 768.094 527.162 950.926Z" fill="white"/>
<path d="M212.882 387.905C221.345 312.829 196.761 267.983 207.505 179.265C255.853 133.131 339.226 191.712 339.226 251.331C339.226 310.95 334.083 357.056 353.129 391.898C347.757 423.837 318.511 446.401 286.279 471.952C245.989 503.891 208.134 430.025 212.882 387.905Z" fill="#D69A77"/>
<path d="M264.975 391.147C248.554 392.034 221.102 374.827 214.874 365.002L214.287 352.212C221.292 350.106 244.087 354.277 273.355 359.331C302.624 364.384 313.184 313.59 335.499 299.319L339.172 305.196C338.393 314.32 337.703 325.031 334.03 332.377C321.079 358.277 292.156 389.677 264.975 391.147Z" fill="#B57752"/>
<path d="M353.247 197.15C358.62 185.408 372.451 180.187 384.243 185.451C394.705 190.12 400.286 201.644 397.461 212.748L390.13 241.565C385.685 259.04 365.335 266.918 350.281 256.991C339.486 249.872 335.493 235.946 340.873 224.188L353.247 197.15Z" fill="#D69A77"/>
<path d="M378.779 199.748C377.875 178.129 353.851 103.367 342.11 79.6689C289.574 -26.3709 245.858 46.0355 202.533 34.1209C167.873 24.5892 148.905 109.049 144.498 146.514C140.09 183.98 150.229 175.165 147.436 233.199C145.335 276.859 188.575 357.585 251.017 371.308C319.337 386.323 379.909 226.772 378.779 199.748Z" fill="#D69A77"/>
<path d="M375.743 194.369C377.072 185.915 376.151 174.516 375.004 171.203L394.366 177.276C397.424 182.081 400.894 193.053 398.346 191.59C395.161 189.761 389.519 186.013 382.855 192.014C379.767 194.795 374.414 205.634 372.701 211.766C373.161 209.489 374.414 202.822 375.743 194.369Z" fill="#4D301E"/>
<path d="M251.131 301.474C264.759 300.962 281.96 296.028 287.548 293.423C282.05 298.42 272.718 314.521 255.683 315.161C232.378 316.036 225.266 300.552 219.408 295.981C225.176 298.16 237.503 301.986 251.131 301.474Z" fill="#FDFCF5"/>
<path d="M162.13 124.478C152.855 147.147 145.233 176.635 146.703 211.897C142.295 205.288 133.479 122.841 143.764 84.071C148.849 64.9019 169.476 38.5252 201.799 26.0367C234.122 13.5482 253.957 19.4291 306.85 22.3675C349.164 24.7183 381.291 106.114 392.065 146.518C385.209 158.272 379.871 175.225 378.108 184.628C376.344 194.031 373.7 210.183 372.231 212.632C364.884 225.121 353.13 198.674 353.13 178.839C353.13 159.005 345.784 140.639 332.561 122.841C319.338 105.042 286.28 81.5342 245.876 75.8251C243.672 75.8251 243.672 67.1776 245.876 59.0968C248.08 51.016 247.345 54.6891 250.284 46.6083C247.427 50.2814 248.521 49.5468 245.876 53.9545C243.232 58.3622 239.265 69.3815 237.061 75.2584C235.591 74.5236 214.222 81.2395 203.268 85.5427C182.699 93.6235 168.741 108.316 162.13 124.478Z" fill="#4D301E"/>
<circle cx="373.699" cy="258.178" r="7.34619" fill="#EDBB33"/>
<path d="M374.434 260.382C375.328 260.382 376.424 260.842 377.668 262.205C378.914 263.568 380.137 265.664 381.209 268.44C383.349 273.977 384.719 281.777 384.719 290.501C384.719 299.226 383.349 307.026 381.209 312.563C380.137 315.339 378.914 317.435 377.668 318.798C376.424 320.161 375.328 320.621 374.434 320.621C373.541 320.621 372.445 320.16 371.201 318.798C369.955 317.435 368.732 315.339 367.66 312.563C365.52 307.026 364.15 299.226 364.15 290.501C364.15 281.776 365.52 273.977 367.66 268.44C368.732 265.664 369.955 263.568 371.201 262.205C372.445 260.842 373.541 260.382 374.434 260.382Z" stroke="#EDBB33" stroke-width="4.40771"/>
<path d="M164.333 406.572C188.576 402.898 199.84 394.328 212.818 388.941C217.471 392.614 232.212 399.96 253.957 399.96C281.138 399.96 326.684 388.941 339.173 388.941C354.6 388.941 345.784 392.614 397.942 400.695C395.004 405.347 387.217 418.619 379.577 428.61C370.027 441.099 298.154 510.887 272.322 510.887C234.122 510.887 155.232 407.95 164.333 406.572Z" fill="#D69A77"/>
<path d="M125.398 416.856C132.01 438.16 173.801 488.231 194.452 505.01C229.714 533.661 268.649 556.434 278.199 556.434C287.749 556.434 347.253 512.357 378.107 480.768C402.79 455.497 426.592 423.468 430.265 406.572" stroke="#D2D2D2" stroke-width="7.34619"/>
<path d="M82.79 435.956C96.0132 463.872 141.169 525.185 168.74 547.618C215.817 585.922 266.184 607.123 278.933 607.123C291.683 607.123 360.824 564.155 402.016 521.923C434.969 488.137 468.465 436.691 475.077 421.264" stroke="#D2D2D2" stroke-width="7.34619"/>
</g>
<defs>
<clipPath id="clip0_15659_307896">
<path d="M0 264C0 118.197 118.197 0 264 0C409.803 0 528 118.197 528 264C528 409.803 409.803 528 264 528C118.197 528 0 409.803 0 264Z" fill="white"/>
</clipPath>
</defs>
</svg>
